X: 386
%
U:~=!turn!
T: Miss Ann Stewart
C:
O:Scotland
B:Keith Norman MacDonald : "The Skye collection of the best reels & strathspeys extant" : 1887
Z:Ralph Palmer
R:Reel
M:C
L:1/8
K:G minor
F | DGG<A Bcdf | AFcA FGAc | BAGA Bcdf | AFc>A BGG :| A | Bcde fdcB | AFcF dFcF |
Bcde fdcB | AFc>A BGGA | Bfdf BfdB | FcAc FcAF | Bfdf BfdB | AFc>A BGG|]


